X: 1
T: The Boys Of Ballisodare
R: reel
M: 4/4
L: 1/8
K: Gmaj
|: dG~G2 dGeG | dGGA BA~A2 | dG~G2 dGeG | AcBA GEE2 |
dG~G2 dGeG | dGGA BA~A2 | GABd (3efe dB | AcBA GEE2 :|
|: gfga baga | gfga beef | gfga ba~a2 | gefd Bee2 |
~g2ga baga | gfga be (3fga | bgaf (3efg fe | dBAc BEE2 :|


Tune 535	Setting 1354

